X:1
T: Parson's Farewell
N:
C:Also used for "Oxford Circus"
S: Play 3 times
A:
O:
R:
M:4/4
K:Em
I:speed 200
%W:         A1                                                             A2
% voice 1 (1 lines, 35 notes)
K:Em
M:4/4
L:1/16
g4 e4 e4 f2 g2 |a4 d4 d6 d2 |e2 f2 g4 f4 e4 |d4 B4 B8 |g4 e4 e4 f2 g2 |a4 d4 d6 d2 |e2 f2 g4 f4 e4 |d4 B4 B4 b4 |
%W: B1
% voice 1 (1 lines, 35 notes)
g8 g4 b4 |g8 g4 b4 |g2 a2 b4 g2 a2 b4 |a4 f4 f8 |f2 g2 a4 f2 g2 a4 |g4 e4 e2 f2 g2 a2 |b4 a2 g2 f2 e2 f4 |e12 b4 |
%W: B2
% voice 1 (1 lines, 34 notes)
g8 g4 b4 |g8 g4 b4 |g2 a2 b4 g2 a2 b4 |a4 f4 f8 |f2 g2 a4 f2 g2 a4 |g4 e4 e2 f2 g2 a2 |b4 a2 g2 f2 e2 f4 |e16 ||
